X: 34638
T: Road To Ballymac, The
R: reel
M: 4/4
K: Gmajor
|:DGGA BAGA|Bd^cd e2 de|gd~d2 egde|gedB ABGE|
DG~G2 BAGA|Bd^cd e2 de|gd~d2 egdB|1 cAFA G3E:|2 cAFA G3A||
|:Bd~d2 edBd|egfg a2 ga|bg~g2 egde|gedB ABGA|
Bd~d2 edBd|egfg a2 ga|bg~g2 egdB|1 cAFA G3E:|2 cAFA G3E||

